src/img/d12.svg

<?xml version="1.0" encoding="UTF-8"?>
<svg width="52px" height="45px" viewBox="0 0 52 45" version="1.1" xmlns="http://www.w3.org/2000/svg" xmlns:xlink="http://www.w3.org/1999/xlink" xmlns:cc="http://creativecommons.org/ns#">
		<!-- Generator: Sketch 53.2 (72643) - https://sketchapp.com -->
		<title>d12</title>
		<desc>Created with Sketch.</desc>
		<g id="Page-1" stroke="none" stroke-width="1" fill="none" fill-rule="evenodd">
				<g id="rpg_dice" transform="translate(-101.000000, -7.000000)" fill="#000000" fill-rule="nonzero">
						<path d="M115.51635,50.14724 C111.25529,48.530097 107.9366,44.578312 109.10477,42.512549 C109.4197,41.955647 109.30404,41.83867 108.84777,42.252601 C108.39149,42.666531 106.60056,40.504031 104.86793,37.447046 L101.71768,31.888892 L106.66596,22.194442 C109.38751,16.862502 112.76548,11.262502 114.17256,9.750002 C116.61312,7.1265925 117.14811,7.0035425 125.7938,7.0768525 C139.90211,7.1964825 141.58603,8.016362 147.50568,17.648072 L152.51348,25.796152 L150.8144,29.148072 C149.8799,30.991632 146.64715,36.8875 143.63052,42.25 L138.14572,52 L129.00121,51.89724 C123.16249,51.83163 118.28765,51.198995 115.51635,50.14724 L115.51635,50.14724 Z M140.19877,46.741751 C141.4869,44.408788 144.57033,38.778067 147.05084,34.229032 L151.56084,25.958072 L147.45892,19.229032 C145.20287,15.528062 142.99168,11.935552 142.54517,11.245672 C141.90461,10.255982 140.51589,10.235852 135.96273,11.150272 C130.24575,12.298412 130.19705,12.337942 130.72154,15.404602 C131.01272,17.107082 131.54005,20.995002 131.89337,24.044422 L132.53578,29.588832 L138.88958,33.017762 C142.38417,34.903672 145.08698,36.603086 144.89582,36.794241 C144.70467,36.985397 141.46767,35.470702 137.70249,33.428242 L130.85671,29.714692 L124.23107,33.891082 C117.73695,37.984566 117.59177,38.170369 116.91782,43.250912 C115.98917,50.251396 117.14172,51.002385 128.79784,50.991771 L137.85671,50.983571 L140.19877,46.741819 L140.19877,46.741751 Z M126.98805,46.212513 C126.68205,45.7174 126.88597,43.667038 127.44121,41.656154 C128.21567,38.851258 128.96364,38.003565 130.65371,38.015313 C133.8676,38.037653 135.78703,39.506411 134.73483,41.138197 C134.25186,41.887188 133.85671,43.4 133.85671,44.5 C133.85671,46.012833 133.08792,46.574624 130.70056,46.806359 C128.96468,46.974856 127.29405,46.707629 126.98805,46.212513 Z M133.13052,44.821443 C132.91446,44.173236 131.96415,43.160736 131.01872,42.571443 C129.71397,41.758174 129.06937,41.861438 128.34356,43 C126.78992,45.437153 127.18325,46 130.44004,46 C132.36258,46 133.37548,45.556304 133.13052,44.821443 L133.13052,44.821443 Z M133.85671,40 C133.51679,39.45 132.36523,39 131.29769,39 C130.23015,39 129.35671,39.45 129.35671,40 C129.35671,40.55 130.50827,41 131.91573,41 C133.36709,41 134.20723,40.567158 133.85671,40 Z M139.0117,28.171262 C137.13642,26.099102 136.93768,24.185942 138.37063,22.000002 C139.07953,20.918582 139.19072,21.352792 138.76911,23.556012 C138.07406,27.188122 140.19386,29.503852 143.30872,28.515232 C145.95288,27.676012 145.8976,26.216882 143.10671,23.183002 L140.85671,20.737112 L143.11788,22.116082 C146.2699,24.038322 147.03255,27.032642 144.78813,28.673802 C142.342,30.462462 140.9778,30.343772 139.0117,28.171262 Z M139.49705,17.852802 C137.64924,17.321052 136.32454,16.698832 136.55328,16.470092 C137.05827,15.965112 144.35671,17.907612 144.35671,18.547002 C144.35671,19.136242 143.56289,19.022842 139.49705,17.852802 L139.49705,17.852802 Z M126.66374,31.445932 L131.47078,28.500002 L130.88698,24.000002 C130.56589,21.525002 130.05067,17.812502 129.74205,15.750002 L129.18091,12.000002 L120.9881,12.000002 L112.79528,12.000002 L109.12233,19.422892 L105.44939,26.845792 L111.61761,31.897322 C117.13111,36.412671 118.00187,36.813151 119.82127,35.670362 C120.94076,34.967182 124.01988,33.066192 126.66374,31.445932 L126.66374,31.445932 Z M114.54532,26.451312 C111.53284,20.250712 111.86854,19.382772 114.97214,25.347802 C116.35941,28.014082 117.32333,30.366712 117.11419,30.575862 C116.90504,30.785002 115.74905,28.928952 114.54532,26.451312 L114.54532,26.451312 Z M119.88187,27.835822 C120.2748,26.551122 121.22329,23.968402 121.98963,22.096462 C123.75786,17.777152 123.04024,17.092212 119.04215,19.283212 L115.85671,21.028872 L118.21749,19.014442 C122.76794,15.131572 125.15142,16.853732 122.85007,22.361642 C120.71498,27.471642 120.96486,28.278162 124.10671,26.417562 C126.69426,24.885222 126.73857,24.888182 124.85671,26.467762 C123.75671,27.391082 122.02663,28.602172 121.01208,29.159082 C119.39411,30.047212 119.25524,29.884622 119.88187,27.835802 L119.88187,27.835822 Z" id="d12"></path>
				</g>
		</g>
</svg>

<!-- Created with Inkscape (http://www.inkscape.org/) -->
<!-- License: Creative Commons -->
<svg width="52" height="45" xmlns="http://www.w3.org/2000/svg"><defs><style>*{fill:#fff}</style></defs><g id="Page-1" stroke="none" stroke-width="1" fill="none" fill-rule="evenodd"><g id="rpg_dice" transform="translate(-101 -7)" fill="#000" fill-rule="nonzero"><path d="M115.516 50.147c-4.26-1.617-7.58-5.569-6.411-7.634.315-.557.199-.674-.257-.26-.457.414-2.247-1.749-3.98-4.806l-3.15-5.558 4.948-9.695c2.722-5.331 6.1-10.931 7.507-12.444 2.44-2.623 2.975-2.746 11.62-2.673 14.11.12 15.793.94 21.713 10.571l5.007 8.148-1.699 3.352c-.934 1.844-4.167 7.74-7.183 13.102L138.146 52 129 51.897c-5.839-.065-10.713-.698-13.485-1.75zm24.683-3.405c1.288-2.333 4.371-7.964 6.852-12.513l4.51-8.27-4.102-6.73c-2.256-3.7-4.467-7.293-4.914-7.983-.64-.99-2.03-1.01-6.582-.096-5.717 1.148-5.766 1.188-5.241 4.255.29 1.702.818 5.59 1.171 8.64l.643 5.544 6.354 3.429c3.494 1.886 6.197 3.585 6.006 3.776-.191.191-3.428-1.323-7.194-3.366l-6.845-3.713-6.626 4.176c-6.494 4.094-6.64 4.28-7.313 9.36-.929 7 .224 7.751 11.88 7.74l9.059-.007 2.342-4.242zm-13.211-.53c-.306-.495-.102-2.545.453-4.556.775-2.805 1.523-3.652 3.213-3.64 3.214.022 5.133 1.49 4.08 3.122-.482.75-.877 2.262-.877 3.362 0 1.513-.77 2.075-3.156 2.306-1.736.169-3.407-.098-3.713-.593zm6.143-1.39c-.217-.649-1.167-1.661-2.112-2.25-1.305-.814-1.95-.71-2.675.428-1.554 2.437-1.16 3 2.096 3 1.923 0 2.935-.444 2.69-1.179zm.726-4.822c-.34-.55-1.492-1-2.56-1-1.067 0-1.94.45-1.94 1s1.151 1 2.559 1c1.451 0 2.291-.433 1.94-1zm5.155-11.829c-1.876-2.072-2.074-3.985-.641-6.171.709-1.081.82-.647.398 1.556-.695 3.632 1.425 5.948 4.54 4.96 2.644-.84 2.589-2.3-.202-5.333l-2.25-2.446 2.26 1.38c3.153 1.921 3.916 4.916 1.671 6.557-2.446 1.788-3.81 1.67-5.776-.503zm.485-10.318c-1.848-.532-3.172-1.154-2.944-1.383.505-.505 7.804 1.438 7.804 2.077 0 .59-.794.476-4.86-.694zm-12.833 13.593l4.807-2.946-.584-4.5a520.688 520.688 0 0 0-1.145-8.25l-.561-3.75h-16.386l-3.673 7.423-3.673 7.423 6.169 5.051c5.513 4.516 6.384 4.916 8.203 3.773 1.12-.703 4.199-2.604 6.843-4.224zm-12.119-4.995c-3.012-6.2-2.676-7.068.427-1.103 1.387 2.666 2.351 5.019 2.142 5.228-.209.209-1.365-1.647-2.569-4.125zm5.337 1.385c.393-1.285 1.341-3.868 2.108-5.74 1.768-4.319 1.05-5.004-2.948-2.813l-3.185 1.746 2.36-2.015c4.55-3.882 6.934-2.16 4.633 3.348-2.135 5.11-1.885 5.916 1.257 4.056 2.587-1.533 2.632-1.53.75.05-1.1.923-2.83 2.134-3.845 2.691-1.618.888-1.757.726-1.13-1.323z" id="d12"/></g></g></svg>
